X: 56
T:Missa Une mousse de Biscaye / Kyrie / Agnus Dei
N: Derived from Jos0502a-Missa_Une_mousse_de_Biscaye-Kyrie.krn
C: Josquin des Prez
%%abc-version 2.0
%%abcx-abcm2ps-target-version 5.9.1 (29 Sep 2008)
%%abc-creator hum2abc beta
%%abcx-conversion-date 2019/02/12 16:15:40
%%abc-edited-by Jesse Rodin
%%abc-edited-by Jesse Rodin; Victoria Chang 2012/02/23
%%abcx-initial-encoding-date 2012/02/23/
%%humdrum-veritas 3177340342
%%humdrum-veritas-data 1101780011
%%linebreak <none>
%%barnumbers 0
L: 1/4
M: 3/1
Q: 1/2=120
%%staves [1 2 3 4]
V: 1 clef=treble
V: 2 clef=treble-8
V: 3 clef=treble-8
V: 4 clef=bass
K: F
[V:1] z12 | 
[V:2] F6G2A4- | 
[V:3] z12 | 
[V:4] z12 | 
[V:1] F6G2A4 | 
[V:2] A2B4AGF4 | 
[V:3] z12 | 
[V:4] z12 | 
[V:1] G2B4AGF4 | 
[V:2] G4z4A4 | 
[V:3] z12 | 
[V:4] z12 | 
[V:1] G4z2A4GF | 
[V:2] B2c4BAB2c2 | 
[V:3] z12 | 
[V:4] z12 | 
[V:1] A2G4F4E2 | 
[V:2] F2B4A2G4 | 
[V:3] z12 | 
[V:4] z12 | 
[V:1] F2A4B2c4 | 
[V:2] F2f4edc4 | 
[V:3] F6G2A4 | 
[V:4] z12 | 
[V:1] F8F4 | 
[V:2] d8d4 | 
[V:3] B8A4 | 
[V:4] B,,6C,2D,4 | 
[V:1] G2E2F2G2A4 | 
[V:2] B2c2A2B2c4 | 
[V:3] G2A4G4F2 | 
[V:4] _E,2C,2D,2B,,2A,,4 | 
[V:1] B2A4G4^F2 | 
[V:2] B2f2B2c2d4 | 
[V:3] G2F2G4A4 | 
[V:4] G,,2D,2_E,4D,4 | 
[V:1] G4z4G4 | 
[V:2] B8c4 | 
[V:3] G8z4 | 
[V:4] _E,8E,4 | 
[V:1] F6EDE4 | 
[V:2] d2D3EF4E2 | 
[V:3] A8A4 | 
[V:4] D,8C,4 | 
[V:1] D2G3FG2E2F2 | 
[V:2] F2B4AGA2F2 | 
[V:3] B8A4 | 
[V:4] B,,4_E,4C,2D,2 | 
[V:1] G2C4F4E2 | 
[V:2] B2c2A2B2c4 | 
[V:3] G2A4GFG4 | 
[V:4] B,,2A,,4D,2C,4 | 
[V:1] F2A3GF2E4 | 
[V:2] A4F4G4 | 
[V:3] F3GA2B2c3B | 
[V:4] D,2F,3E,D,2C,4 | 
[V:1] F2G3FD2E4 | 
[V:2] F2c3BB4A2 | 
[V:3] A2G4F4E2 | 
[V:4] D,2_E,3D,B,,2C,4 | 
[V:1] D12 ||  
[V:2] B12 ||  
[V:3] F12 ||  
[V:4] B,,12 ||  
[V:1]  [K:F] [K:clef=treble][M:2/1]z8 | 
[V:2]  [K:F] [K:clef=treble-8][M:2/1]z8 | 
[V:3]  [K:F] [K:clef=treble-8][M:2/1]F6GA | 
[V:4]  [K:F] [K:clef=bass][M:2/1]z8 | 
[V:1] F6GA | 
[V:2] z8 | 
[V:3] B4A4 | 
[V:4] z8 | 
[V:1] B6A2- | 
[V:2] z8 | 
[V:3] GABcd2c2- | 
[V:4] z8 | 
[V:1] A2GFB2A2- | 
[V:2] z8 | 
[V:3] c2BAG2F2 | 
[V:4] z8 | 
[V:1] A2G4^F2 | 
[V:2] z8 | 
[V:3] G4A4 | 
[V:4] z8 | 
[V:1] G8 | 
[V:2] B6cd | 
[V:3] G4z4 | 
[V:4] z8 | 
[V:1] z8 | 
[V:2] _e6dc | 
[V:3] z8 | 
[V:4] C,6D,E, | 
[V:1] z8 | 
[V:2] d2c4BA | 
[V:3] z8 | 
[V:4] F,8 | 
[V:1] z8 | 
[V:2] G4F2G2- | 
[V:3] z8 | 
[V:4] E,4D,2E,2- | 
[V:1] z8 | 
[V:2] G2F2E4 | 
[V:3] z8 | 
[V:4] E,2D,4^C,2 | 
[V:1] z8 | 
[V:2] DEFGABcd | 
[V:3] z8 | 
[V:4] D,3E,F,4 | 
[V:1] z8 | 
[V:2] e3/d/f3ed2- | 
[V:3] z8 | 
[V:4] G,2A,2D,4 | 
[V:1] z8 | 
[V:2] d2^c2d4 | 
[V:3] z8 | 
[V:4] E,4D,4 | 
[V:1] A8 | 
[V:2] z8 | 
[V:3] z2F3GAB | 
[V:4] z8 | 
[V:1] B6AG | 
[V:2] z8 | 
[V:3] G2d4cB | 
[V:4] z8 | 
[V:1] B2A2G2B2- | 
[V:2] z8 | 
[V:3] d4_e4 | 
[V:4] z8 | 
[V:1] B2AGA2G2 | 
[V:2] z8 | 
[V:3] d4c2B2- | 
[V:4] z8 | 
[V:1] B4A2G2- | 
[V:2] z8 | 
[V:3] B2AGF2B2- | 
[V:4] z8 | 
[V:1] G2F4E2 | 
[V:2] z8 | 
[V:3] B2A2G4 | 
[V:4] z4C,4 | 
[V:1] F4z4 | 
[V:2] A8 | 
[V:3] F8 | 
[V:4] D,2F,3E,D,C, | 
[V:1] z8 | 
[V:2] B6AG | 
[V:3] z8 | 
[V:4] B,,2D,4C,B,, | 
[V:1] z8 | 
[V:2] B4A4 | 
[V:3] z8 | 
[V:4] D,2_E,2C,2D,2 | 
[V:1] z8 | 
[V:2] G2B4AG | 
[V:3] z8 | 
[V:4] _E,2D,4C,B,, | 
[V:1] z8 | 
[V:2] F3GABc2- | 
[V:3] z8 | 
[V:4] D,3E,F,4 | 
[V:1] z8 | 
[V:2] c2B4A2 | 
[V:3] z8 | 
[V:4] _E,2D,2C,4 | 
[V:1] F4G4 | 
[V:2] B4z4 | 
[V:3] D4E4 | 
[V:4] B,,2D,4C,2 | 
[V:1] F3GABc2- | 
[V:2] z8 | 
[V:3] D2d4cB | 
[V:4] D,4z4 | 
[V:1] c2B4A2 | 
[V:2] z2e2f4 | 
[V:3] A2B2c4 | 
[V:4] z2G,2F,4 | 
[V:1] B4z2B2- | 
[V:2] d6e2 | 
[V:3] B6c2 | 
[V:4] G,6F,E, | 
[V:1] BAB2c4 | 
[V:2] f4g4 | 
[V:3] d4_e4 | 
[V:4] D,4C,4 | 
[V:1] B4G2A2- | 
[V:2] g3fd2e2 | 
[V:3] d4B2c2 | 
[V:4] G,,2G,4C,2 | 
[V:1] A2GFG2A2- | 
[V:2] A2d2G2c2 | 
[V:3] d4B2c2 | 
[V:4] F,2D,2E,2C,2 | 
[V:1] AGF4E2 | 
[V:2] A2B2c4 | 
[V:3] F4G4 | 
[V:4] D,4C,4 | 
[V:1] F6ED | 
[V:2] A8 | 
[V:3] F8- | 
[V:4] D,6C,B,, | 
[V:1] C2D4C2 | 
[V:2] A2F3GA2 | 
[V:3] F4F4 | 
[V:4] A,,2B,,4A,,2 | 
[V:1] D2G4FE | 
[V:2] B2G3ABc | 
[V:3] B6AG | 
[V:4] G,,4D,4 | 
[V:1] G2F2G4 | 
[V:2] d4c4 | 
[V:3] B2A2G4 | 
[V:4] G,,2D,2_E,4 | 
[V:1] F8 ||  
[V:2] d8 ||  
[V:3] A8 ||  
[V:4] D,8 ||  
[V:1]  [K:F] [K:clef=treble][M:2/1]F4G4 | 
[V:2]  [K:F] [K:clef=treble-8][M:2/1]d4B2c2 | 
[V:3]  [K:F] [K:clef=treble-8][M:2/1]z8 | 
[V:4]  [K:F] [K:clef=bass][M:2/1]z8 | 
[V:1] F3GA2B2- | 
[V:2] d2f3ed2 | 
[V:3] z8 | 
[V:4] z8 | 
[V:1] B2A2B4 | 
[V:2] c4B4 | 
[V:3] F4G4 | 
[V:4] A,,4G,,4 | 
[V:1] z8 | 
[V:2] A2GFE2F2- | 
[V:3] F3GA2B2- | 
[V:4] D,4C,2B,,2 | 
[V:1] z4d4- | 
[V:2] F2E2F2B2- | 
[V:3] B2A2B4 | 
[V:4] C,4B,,2G,,2- | 
[V:1] d2B4AG | 
[V:2] B2AGB2c2 | 
[V:3] G4z4 | 
[V:4] G,,A,,B,,C,D,2E,2 | 
[V:1] F2G3FG2 | 
[V:2] d2B2G4 | 
[V:3] B8 | 
[V:4] D,2E,3D,E,2 | 
[V:1] E3FG2A2- | 
[V:2] A4G2d2- | 
[V:3] c4B2A2- | 
[V:4] C,3D,E,2F,2- | 
[V:1] AGE2F4 | 
[V:2] dcc4=B2 | 
[V:3] A2G4F2 | 
[V:4] F,E,C,2D,4 | 
[V:1] E4D2E2 | 
[V:2] c4d2c2 | 
[V:3] G2A2B2c2 | 
[V:4] C,4B,,2A,,2 | 
[V:1] F2G4^F2 | 
[V:2] B2c2d4 | 
[V:3] d2G2A4 | 
[V:4] D,2E,2D,4 | 
[V:1] G4z2B2- | 
[V:2] B4G3A | 
[V:3] G8 | 
[V:4] z2E,4D,C, | 
[V:1] B2AGA2B2 | 
[V:2] B2d3cB2 | 
[V:3] z8 | 
[V:4] G,4F,2G,2 | 
[V:1] c6F2- | 
[V:2] A2c3BAG | 
[V:3] A8- | 
[V:4] F,6E,2 | 
[V:1] F2EDE4 | 
[V:2] F4c4 | 
[V:3] A8 | 
[V:4] D,4C,4 | 
[V:1] D6E2 | 
[V:2] d2B4AG | 
[V:3] B8 | 
[V:4] B,,6C,2 | 
[V:1] F4G4 | 
[V:2] F2d4c2 | 
[V:3] A4G4 | 
[V:4] D,4_E,4 | 
[V:1] F6G2 | 
[V:2] d8 | 
[V:3] A4B4 | 
[V:4] D,6E,2 | 
[V:1] A4B2G2 | 
[V:2] c4B4 | 
[V:3] A4G4 | 
[V:4] F,4G,2E,2 | 
[V:1] A4F2G2- | 
[V:2] A4d4 | 
[V:3] F3GA2B2- | 
[V:4] F,3E,D,C,B,,2- | 
[V:1] G2F4E2 | 
[V:2] B4c4 | 
[V:3] BAF2G4 | 
[V:4] B,,C,D,2C,4 | 
[V:1] F4A4- | 
[V:2] A2d4cB | 
[V:3] F8 | 
[V:4] D,6E,2 | 
[V:1] A2B2c4- | 
[V:2] A6B2 | 
[V:3] z4A4- | 
[V:4] F,8- | 
[V:1] c2BAG4 | 
[V:2] c2d2e4 | 
[V:3] A2B2c4 | 
[V:4] F,4E,4 | 
[V:1] F4B4 | 
[V:2] A2B3AG2 | 
[V:3] d8- | 
[V:4] D,2B,,3C,D,E, | 
[V:1] A2B2A2B2 | 
[V:2] F2B2F2B2 | 
[V:3] d8 | 
[V:4] F,2G,2D,2G,2 | 
[V:1] G2A2F2G2 | 
[V:2] c2A2B2G2 | 
[V:3] c4B4 | 
[V:4] E,2F,2D,2E,2 | 
[V:1] E2F3ED2 | 
[V:2] A2F4f2- | 
[V:3] c2d3cB2- | 
[V:4] C,2D,2B,,4 | 
[V:1] C4B,2c2- | 
[V:2] fecde2f2- | 
[V:3] B2A2B2A2 | 
[V:4] F,4G,2F,2 | 
[V:1] cBB4A2 | 
[V:2] f2e2f4 | 
[V:3] B4c4 | 
[V:4] G,4F,4 | 
[V:1] B8 |]  
[V:2] f8 |]  
[V:3] B8 |]  
[V:4] B,,8 |]  



